X:114
T: Tierna Mayo
T: Tighearna (Tiarna) Muigh Eo
N: O'Farrell's Pocket Companion v.2 (Sky ed. p.63)
N: "Irish" = Lord Mayo
M: C
L: 1/8
Q: 120 % "slow"
K: Gm
z|G>FG>A d2 c>A|d2 A>G FG/F/ D2|G>FG>A d2 c>A|d>cA>G G3 :|
d|f>dfg a2 gf|d>fc>A FG/F/ D2|f>dfg a2 gf|d>cd>f g4|
f>dfg a2 gf|d>fc>A FG/F/ D2|G>FG>A d2 c>A|d>cA>G G3 ||
